X:1
T: The Humours of Dublin
C:
R:Jig
Q: 180
K:G
M:6/8
L:1/8
|:DAG F2D|AFD E1/2F1/2GE|dAG F2D|GEC E1/2F1/2GE|
dAG F2D|f1/2g1/2af g2e|dBd c2A|1GEC E1/2F1/2GE:|2GEC efg|
|:f2d-dfg|afd efg|f2d-def|gec efg|f2d-dfd|
BdB AFA|GAB cBA|1GEC efg:|2GEC E1/2F1/2GE|
|:DFD dFD|AFD E1/2F1/2GE|DFD dFD|GEC E1/2F1/2GE|
DFD dFD|f1/2g1/2af g2e|dBd c2A|1GEC E1/2F1/2GE:|2GEC efg|
|:afd afd|afd efg|afd dfa|gec efg|afd afd|
faf g2e|dBd cBA|1GEC efg:|2GEC E1/2F1/2GE||
